!!!!SEGMENT: pl-kk--kk-i-8--020_anonim--rex-gloriose-martyrum-corona.krn
!!!cenid: 16xx:1161
!!!COM: Anonim
!!!COM-rismID: pe30004985
!!!CDT:
!!!CNT:
!!!OTL: Rex gloriose Martyrum Corona
!!!PDT:
!!!AGN: Sacred
!!!SMS-siglum: PL-Kk
!!!SMS-shelfmark: Kk.I.8
!!!SMS-shelfwork: 020 W
!!!SMS-variant:
!!!SMS-altvar:
!!!NIFC-rismSourceID: 1001148873
!!!NIFC-islandoraID: pl-kk:2296
!!!URL-pdf-islandora: https://repozytorium.nifc.pl/islandora/object/pl-kk%3A2296/datastream/PDF/view
!!!URL-scan: https://polish.musicsources.pl/pl/lokalizacje/galeria/rekopisy/6141 @EN{Scan on Polish Music Sources Website} @PL{Skany w portalu Dziedzictwo Muzyki Polskiej w otwartym dostępie}
!!!ONB-nifc: UWAGA: A (skan 0011), T1 (0035), T2 (0058), B (0081). Druga pięciolinia. Następny utwór: Rex gloriose Martyrum Corona (trzecia pięciolinia)
!!!AIN: 1 alto 1 bass 2 tenor
!!!key:
**kern	**text	**text	**text	**text	**text	**kern	**text	**text	**text	**text	**text	**kern	**text	**text	**text	**text	**text	**kern	**text	**text	**text	**text	**text
*part4	*part4	*part4	*part4	*part4	*part4	*part3	*part3	*part3	*part3	*part3	*part3	*part2	*part2	*part2	*part2	*part2	*part2	*part1	*part1	*part1	*part1	*part1	*part1
*staff4	*staff4	*staff4	*staff4	*staff4	*staff4	*staff3	*staff3	*staff3	*staff3	*staff3	*staff3	*staff2	*staff2	*staff2	*staff2	*staff2	*staff2	*staff1	*staff1	*staff1	*staff1	*staff1	*staff1
*Ibass	*	*	*	*	*	*Itenor	*	*	*	*	*	*Itenor	*	*	*	*	*	*Ialto	*	*	*	*	*
*I"[BASSVS.]	*	*	*	*	*	*I"[TENOR 2dus.]	*	*	*	*	*	*I"[Tenore 1mo]	*	*	*	*	*	*I"[alto.]	*	*	*	*	*
*I'B	*	*	*	*	*	*I'T II	*	*	*	*	*	*I'T I	*	*	*	*	*	*I'A	*	*	*	*	*
*clefF4	*	*	*	*	*	*clefC4	*	*	*	*	*	*clefC4	*	*	*	*	*	*clefC3	*	*	*	*	*
*k[b-]	*	*	*	*	*	*k[b-]	*	*	*	*	*	*k[b-]	*	*	*	*	*	*k[b-]	*	*	*	*	*
*c:	*	*	*	*	*	*c:	*	*	*	*	*	*c:	*	*	*	*	*	*c:	*	*	*	*	*
*M3/1	*	*	*	*	*	*M3/1	*	*	*	*	*	*M3/1	*	*	*	*	*	*M3/1	*	*	*	*	*
=1-	=1-	=1-	=1-	=1-	=1-	=1-	=1-	=1-	=1-	=1-	=1-	=1-	=1-	=1-	=1-	=1-	=1-	=1-	=1-	=1-	=1-	=1-	=1-
!LO:TX:b:t=2da	!	!	!	!	!	!	!	!	!	!	!	!	!	!	!	!	!	!	!	!	!	!	!
!LO:TX:t=P:problem=bemol E- po metrum	!	!	!	!	!	!LO:TX:b:t=2da	!	!	!	!	!	!LO:TX:b:t=2da	!	!	!	!	!	!LO:TX:a:t=2	!	!	!	!	!
1C	Rex	Au-	Tu	De-	.	1G	Rex	Au-	Tu	De-	.	1c	Rex	Au-	Tu	De-	.	1e-X	Rex	Au-	Tu	De-	.
1F	glo-	-rem	Vin-	-o	.	1A-X	glo-	-rem	Vin-	-o	.	1c	glo-	-rem	Vin-	-o	.	1f	glo-	-re(m)	vin-	-o	.
!	!	!	!	!	!	!	!	!	!	!	!	!LO:N:acc=#	!	!	!	!	!	!	!	!	!	!	!
!LO:TX:t=P:problem=kreska pseudotaktowa	!	!	!	!	!	!LO:TX:t=P:problem=kreska pseudotaktowa	!	!	!	!	!	!LO:TX:t=P:problem=kreska pseudotaktowa	!	!	!	!	!	!LO:TX:t=P:problem=kreska pseudotaktowa	!	!	!	!	!
1D-X	-ri-	be-	-cis	Pa-	.	1F	-ri-	be-	-cis	Pa-	.	1Bn	-ri-	be-	-cis	Pa-	.	1f	-ri-	be-	-cis	Pa-	.
=2-	=2-	=2-	=2-	=2-	=2-	=2-	=2-	=2-	=2-	=2-	=2-	=2-	=2-	=2-	=2-	=2-	=2-	=2-	=2-	=2-	=2-	=2-	=2-
!	!	!	!	!	!	!	!	!	!	!	!	!	!	!	!	!	!	!LO:TX:a:t=P:problem=♭ above	!	!	!	!	!
0C	-o-	-ni-	in-	-tri-	.	0G	-o-	-ni-	in-	-tri-	.	0c	-o-	-ni-	in-	-tri-	.	0e-X	-o-	-ni-	in-	-tri-	.
!LO:TX:t=P:problem=kreska pseudotaktowa	!	!	!	!	!	!LO:TX:t=P:problem=kreska pseudotaktowa	!	!	!	!	!	!LO:TX:t=P:problem=kreska pseudotaktowa	!	!	!	!	!	!LO:TX:t=P:problem=kreska pseudotaktowa	!	!	!	!	!
1AA-X	-se	-gnam	-ter	-ſit	.	1A-X	-se	-gnam	-ter	-ſit	.	1c	-se	-gnam	-ter	-ſit	.	1f	-se	-gna(m)	-ter	-sit	.
=3-	=3-	=3-	=3-	=3-	=3-	=3-	=3-	=3-	=3-	=3-	=3-	=3-	=3-	=3-	=3-	=3-	=3-	=3-	=3-	=3-	=3-	=3-	=3-
!	!	!	!	!	!	!	!	!	!	!	!	!LO:N:acc=#	!	!	!	!	!	!	!	!	!	!	!
1.GG	Mar-	pro-	Mar-	glo-	.	1.D	Mar-	pro-	Mar-	glo-	.	1.Bn	Mar-	pro-	Mar-	glo-	.	1.d	Mar-	pro-	Mar-	glo-	.
*	*	*	*	*	*	*	*	*	*	*	*	*2\right	*	*	*	*	*	*	*	*	*	*	*
2GG/	-ty-	-ti-	-tẏ-	-ri-	.	2G/	-tẏ-	-ti-	-ty-	-ri-	.	2B\	-tẏ-	-ti-	-tẏ-	-ri-	.	2d\	-ty-	-ti-	-ty-	-ri-	.
!LO:TX:t=P:problem=kreska pseudotaktowa	!	!	!	!	!	!LO:TX:t=P:problem=kreska pseudotaktowa	!	!	!	!	!	!LO:TX:t=P:problem=kreska pseudotaktowa	!	!	!	!	!	!LO:TX:t=P:problem=kreska pseudotaktowa	!	!	!	!	!
1GG	-rum	-nus	-res	-a	.	1G	-ru(m)	-nus	-res	-a	.	1B,<	-rum	-nus	-res	-a	.	1d	-ru(m)	-n(us)	-res	-a	.
=4-	=4-	=4-	=4-	=4-	=4-	=4-	=4-	=4-	=4-	=4-	=4-	=4-	=4-	=4-	=4-	=4-	=4-	=4-	=4-	=4-	=4-	=4-	=4-
1E-X	Co-	In-	Par-	et	e-	1G	Co-	In-	par-	e-	et	1B-X	Co-	in-	Par-	E-	et	1e-X	Co-	in-	par-	e-	et
1D	-ro-	-ten-	-cis-	Fi-	-ius-	1F	-ro-	-ten-	-cis-	-ius-	Fi-	1B-	-ro-	-ten-	-cis-	-ius-	Fi-	1f	-ro-	-ten-	-cis-	-jus-	Fi-
!LO:TX:t=P:problem=kreska pseudotaktowa	!	!	!	!	!	!LO:TX:t=P:problem=kreska pseudotaktowa	!	!	!	!	!	!LO:TX:t=P:problem=kreska pseudotaktowa	!	!	!	!	!	!LO:TX:t=P:problem=kreska pseudotaktowa	!	!	!	!	!
1E-	-na	-de	-q(ue)	-li-	-q(ue)	1E-X	-na	-de	-q(ue)	-q(ue)	-li-	1B-	-na	-de	-q(ue)	-q(ue)	-li-	1g	-na	-de	-q(ue)	-q(ue)	-li-
=5-	=5-	=5-	=5-	=5-	=5-	=5-	=5-	=5-	=5-	=5-	=5-	=5-	=5-	=5-	=5-	=5-	=5-	=5-	=5-	=5-	=5-	=5-	=5-
1.C	con-	no-	Con-	-o	so-	1.G	con-	no-	Con-	so-	-o	(2c\	Con-	no-	Con-	so-	-o	2c\	con-	no-	Con-	so-	-o
.	.	.	.	.	.	.	.	.	.	.	.	2B-\	.	.	.	.	.	2d\	.	.	.	.	.
!	!	!	!	!	!	!	!	!	!	!	!	!	!	!	!	!	!	!LO:SIC:v:s=2e-	!	!	!	!	!
.	.	.	.	.	.	.	.	.	.	.	.	2c\	.	.	.	.	.	2e\	.	.	.	.	.
*	*	*	*	*	*	*2\right	*	*	*	*	*	*	*	*	*	*	*	*	*	*	*	*	*
4BB-/	.	.	.	.	.	2A\	.	.	.	.	.	2d\)	.	.	.	.	.	2f\	.	.	.	.	.
4AA/	.	.	.	.	.	.	.	.	.	.	.	.	.	.	.	.	.	.	.	.	.	.	.
!LO:TX:t=P:problem=kreska pseudotaktowa	!	!	!	!	!	!LO:TX:t=P:problem=kreska pseudotaktowa	!	!	!	!	!	!LO:TX:t=P:problem=kreska pseudotaktowa	!	!	!	!	!	!LO:TX:t=P:problem=kreska pseudotaktowa	!	!	!	!	!
1GG	.	.	.	qui-	.	1B-	.	.	.	.	qui-	1e-X	.	.	.	.	qui-	1g	.	.	.	.	qui-
=6-	=6-	=6-	=6-	=6-	=6-	=6-	=6-	=6-	=6-	=6-	=6-	=6-	=6-	=6-	=6-	=6-	=6-	=6-	=6-	=6-	=6-	=6-	=6-
!	!	!	!	!	!	!	!	!	!	!	!	!LO:SIC:v:s=1e-	!	!	!	!	!	!	!	!	!	!	!
1AA-X	-fi-	-ſtris	-fes-	-â	-li	1c	-fi-	-ſtris	-feſ-	-li	-a	1e	-fi-	-ſtris	-feſ-	-li	-â	1f	-fi-	-ſtris	-feſ-	-li	-a
!	!	!	!	!	!	!	!	!	!	!	!	!LO:SIC:v:s=1.e-	!	!	!	!	!	!	!	!	!	!	!
1.BB-	-ten-	vo-	-so-	mor-	Fi-	1.B-	-ten-	Vo-	-so-	Fi-	mor-	1.e	-ten-	Vo-	-so-	Fi-	mor-	1.f	-ten-	vo-	-so-	Fi-	Mor-
!LO:TX:t=P:problem=kreska pseudotaktowa	!	!	!	!	!	!LO:TX:t=P:problem=kreska pseudotaktowa	!	!	!	!	!	!LO:TX:t=P:problem=kreska pseudotaktowa	!	!	!	!	!	!	!	!	!	!	!
2BB-/	-ti-	ci-	-ri-	-tu-	-li-	2B-\	-ti-	-ci-	-ri-	-li-	-tu-	2d\	-ti-	-ci-	-ri-	-li-	-tu-	2f\	-ti-	-ci-	-ri-	-li-	-tu-
=7-	=7-	=7-	=7-	=7-	=7-	=7-	=7-	=7-	=7-	=7-	=7-	=7-	=7-	=7-	=7-	=7-	=7-	=7-	=7-	=7-	=7-	=7-	=7-
!	!	!	!	!	!	!	!	!	!	!	!	!LO:SIC:v:s=0.e-	!	!	!	!	!	!	!	!	!	!	!
0.E-X	-um	-bus	-bus	-is	-o	0.B-	-um	-bus	-bus	-o	-is	0.e	-um	-bus	-bus	-o	-is	0.e-X	-u(m)	-b(us)	-b(us)	-o	-is
=8!|:-	=8!|:-	=8!|:-	=8!|:-	=8!|:-	=8!|:-	=8!|:-	=8!|:-	=8!|:-	=8!|:-	=8!|:-	=8!|:-	=8!|:-	=8!|:-	=8!|:-	=8!|:-	=8!|:-	=8!|:-	=8!|:-	=8!|:-	=8!|:-	=8!|:-	=8!|:-	=8!|:-
!	!	!	!	!	!	!	!	!	!	!	!	!	!	!	!	!	!	!LO:SIC:v:s=1e-	!	!	!	!	!
1E-X	Qui	Tro-	Tu	ſur-	Cum	1G	Qui	Tro-	Tu	Cum	ſur-	1B-X	Qui	Tro-	Tu	Cum	ſur-	1e	qvi	Tro-	tu	Cum	sur-
!	!	!	!	!	!	!	!	!	!	!	!	!	!	!	!	!	!	!LO:SIC:v:s=1e-	!	!	!	!	!
1E-	reſ-	-phe-	Vin-	-re-	ſpi-	1G	reſ-	-phe-	Vin-	ſpi-	-re-	1B-	reſ-	-phe-	Vin-	ſpi-	-re-	1e	rêſ-	-phe-	vin-	Spi-	-re-
!LO:TX:t=P:problem=kreska pseudotaktowa	!	!	!	!	!	!LO:TX:t=P:problem=kreska pseudotaktowa	!	!	!	!	!	!LO:TX:t=P:problem=kreska pseudotaktowa	!	!	!	!	!	!LO:TX:t=P:problem=kreska pseudotaktowa	!	!	!	!	!
1D	-pu-	-a	-ce	-xit	-ri-	1G	-pu-	-a	-ce	-ri-	-xit	1B-	-pu-	-a	-ce	-ri-	-xit	1f	-pu-	-a	-ce	-ri-	-xit
=9-	=9-	=9-	=9-	=9-	=9-	=9-	=9-	=9-	=9-	=9-	=9-	=9-	=9-	=9-	=9-	=9-	=9-	=9-	=9-	=9-	=9-	=9-	=9-
!	!	!	!	!	!	!	!	!	!	!	!	!	!	!	!	!	!	!LO:SIC:v:s=0e-	!	!	!	!	!
0C	-en-	ſa-	no-	ac	-tu	0G	-en-	ſa-	no-	-tu	ac	0c	-en-	ſa-	no-	-tu	ac	0e	-en-	Sa-	no-	-tu	ac
!LO:TX:t=P:problem=kreska pseudotaktowa	!	!	!	!	!	!LO:TX:t=P:problem=kreska pseudotaktowa	!	!	!	!	!	!LO:TX:t=P:problem=kreska pseudotaktowa	!	!	!	!	!	!LO:TX:t=P:problem=kreska pseudotaktowa	!	!	!	!	!
1F	-tes	-cra	-ſtra	Pa-	Pa-	1A	-tes	-cra	-ſtra	Pa-	.	1c	-tes	-cra	-ſtra	Pa-	.	1c	-teſ	-c[ra]	-(st)ra	Pa-	.
=10-	=10-	=10-	=10-	=10-	=10-	=10-	=10-	=10-	=10-	=10-	=10-	=10-	=10-	=10-	=10-	=10-	=10-	=10-	=10-	=10-	=10-	=10-	=10-
1.BB-	ter-	pan-	Cri-	-ra-	-ra-	1.F	ter-	pan-	Cri-	-ra-	.	1.B-	ter-	pan-	Cri-	-ra-	.	1.d	ter-	pan-	Cri-	-ra-	.
2BB-/	-rae	-gi-	-mi-	-de-	-de-	2F/	-rae	-gi-	-mi-	-de-	.	2B-\	-rae	-gi-	-mi-	-de-	.	2d\	-rae	-gi-	-mi-	-de-	.
!LO:TX:t=P:problem=kreska pseudotaktowa	!	!	!	!	!	!LO:TX:t=P:problem=kreska pseudotaktowa	!	!	!	!	!	!LO:TX:t=P:problem=kreska pseudotaktowa	!	!	!	!	!	!LO:TX:t=P:problem=kreska pseudotaktowa	!	!	!	!	!
1BB-	.	-mus	-na	-to	-to	1F	.	-mus	-na	-to	.	1B-	.	-mus	-na	-to	.	1d	.	-m(us)	-na	-to	.
=11-	=11-	=11-	=11-	=11-	=11-	=11-	=11-	=11-	=11-	=11-	=11-	=11-	=11-	=11-	=11-	=11-	=11-	=11-	=11-	=11-	=11-	=11-	=11-
1BB-	per-	i-	lar-	in	.	1B-	per-	i-	lar-	in	.	1d	per-	i-	lar-	in	.	1d	per-	i-	lar-	in	.
!	!	!	!	!	!	!	!	!	!	!	!	!	!	!	!	!	!	!LO:SIC:v:s=1e-	!	!	!	!	!
1C	-du-	-gnoſ-	-gi-	ſem-	.	1A	-du-	-gnoſ-	-gi-	ſem-	.	1c	-du-	-gnoſ-	-gi-	ſem-	.	1e	-du-	-gnos-	-gi-	Sem-	.
!LO:TX:t=P:problem=kreska pseudotaktowa	!	!	!	!	!	!LO:TX:t=P:problem=kreska pseudotaktowa	!	!	!	!	!	!LO:TX:t=P:problem=kreska pseudotaktowa	!	!	!	!	!	!LO:TX:t=P:problem=kreska pseudotaktowa	!	!	!	!	!
1D	-cis	-[c]e	-tor	-pi-	.	1A	-cis	-ce	-tor	-pi-	.	1c	-cis	-ce	-tor	-pi-	.	1f	-cis	-ce	-tor	-pi-	.
=12-	=12-	=12-	=12-	=12-	=12-	=12-	=12-	=12-	=12-	=12-	=12-	=12-	=12-	=12-	=12-	=12-	=12-	=12-	=12-	=12-	=12-	=12-	=12-
1.E-X	ad	quod	in-	-ter-	.	0G	ad	quod	in-	-ter-	.	1.B-	ad	quod	in-	-ter-	.	0g	ad	q(uo)d	in-	-ter-	.
!	!	!	!	!	!	!	!	!	!	!	!	!LO:TX:t=P:problem=4\right&colon; global	!	!	!	!	!	!	!	!	!	!	!
2D/	.	.	.	.	.	.	.	.	.	.	.	4c\	.	.	.	.	.	.	.	.	.	.	.
.	.	.	.	.	.	.	.	.	.	.	.	4d\	.	.	.	.	.	.	.	.	.	.	.
!LO:TX:t=P:problem=kreska pseudotaktowa	!	!	!	!	!	!LO:TX:t=P:problem=kreska pseudotaktowa	!	!	!	!	!	!LO:TX:t=P:problem=kreska pseudotaktowa	!	!	!	!	!	!LO:TX:t=P:problem=kreska pseudotaktowa	!	!	!	!	!
1C	cae-	de-	-dul-	-na	.	1G	cae-	de-	-dul-	-na	.	1e-X	cae-	de-	-dul-	-na	.	1g	Cae-	de-	-dul-	-na	.
=13-	=13-	=13-	=13-	=13-	=13-	=13-	=13-	=13-	=13-	=13-	=13-	=13-	=13-	=13-	=13-	=13-	=13-	=13-	=13-	=13-	=13-	=13-	=13-
1BB-	-le-	-li-	-gen-	ſae-	.	1G	-le-	-li-	-gen-	ſae-	.	1d	.	.	.	.	.	0g	-le-	-li-	-gen-	Sae-	.
1.D	.	.	.	.	.	1.A	.	.	.	.	.	1.d	-le-	-li-	-gen-	ſae-	.	.	.	.	.	.	.
!	!	!	!	!	!	!	!	!	!	!	!	!	!	!	!	!	!	!LO:TX:t=P:problem=# above	!	!	!	!	!
.	.	.	.	.	.	.	.	.	.	.	.	.	.	.	.	.	.	(2f#X\	-ſti-	-qvi-	-ti-	-cu-	.
!LO:TX:t=P:problem=kreska pseudotaktowa	!	!	!	!	!	!LO:TX:t=P:problem=kreska pseudotaktowa	!	!	!	!	!	!	!	!	!	!	!	!LO:TX:t=P:problem=kreska pseudotaktowa	!	!	!	!	!
2D/	-ſti-	-qui-	-ti-	-cu-	.	2A/	-ſti-	-qui-	-ti-	-cu-	.	2d\	-ſti-	-qui-	-ti-	-cu-	.	2g\)	.	.	.	.	.
=14-	=14-	=14-	=14-	=14-	=14-	=14-	=14-	=14-	=14-	=14-	=14-	=14-	=14-	=14-	=14-	=14-	=14-	=14-	=14-	=14-	=14-	=14-	=14-
!	!	!	!	!	!	!LO:N:acc=#	!	!	!	!	!	!	!	!	!	!	!	!	!	!	!	!	!
!LO:TX:t=P:problem=kreska pseudotaktowa	!	!	!	!	!	!LO:TX:t=P:problem=kreska pseudotaktowa	!	!	!	!	!	!	!	!	!	!	!	!LO:TX:t=P:problem=kreska pseudotaktowa	!	!	!	!	!
!	!	!	!	!	!	!	!	!	!	!	!	!LO:TX:t=P:problem=kreska pseudotaktowa	!	!	!	!	!	!	!	!	!	!	!
0.GG	-a	-mus	-ae	-la	.	0.Bn	-a	-m(us)	-ae	-la	.	0.d	-a	-mus	-ae	-la	.	0.g	-a	-m(us)	-ae	-la	.
=15-	=15-	=15-	=15-	=15-	=15-	=15-	=15-	=15-	=15-	=15-	=15-	=15-	=15-	=15-	=15-	=15-	=15-	=15-	=15-	=15-	=15-	=15-	=15-
*	*ij	*ij	*ij	*ij	*	*	*ij	*ij	*ij	*ij	*	*	*ij	*ij	*ij	*ij	*	*	*ij	*ij	*ij	*ij	*
!	!	!	!	!	!	!	!	!	!	!	!	!LO:TX:a:t=P:problem=♭ above	!	!	!	!	!	!	!	!	!	!	!
1E-X	per-	i-	lar-	in	.	1B-	per-	i-	lar-	in	.	1e-X	per-	i-	lar-	in	.	1g	per-	i-	lar-	in	.
1F	-du-	-gnoſ-	-gi-	ſem-	.	1A	-du-	-gnoſ-	-gi-	ſem-	.	1d	-du-	-gnoſ-	-gi-	ſem-	.	1.f	-du-	-gnos-	-gi-	Sem-	.
!LO:TX:t=P:problem=kreska pseudotaktowa	!	!	!	!	!	!LO:TX:t=P:problem=kreska pseudotaktowa	!	!	!	!	!	!LO:TX:t=P:problem=kreska pseudotaktowa	!	!	!	!	!	!	!	!	!	!	!
1G	-cis	-ce	-tor	-pi-	.	1G	-cis	-ce	-tor	-pi-	.	1d	-cis	-ce	-tor	-pi-	.	.	.	.	.	.	.
!	!	!	!	!	!	!	!	!	!	!	!	!	!	!	!	!	!	!LO:TX:t=P:problem=kreska pseudotaktowa	!	!	!	!	!
.	.	.	.	.	.	.	.	.	.	.	.	.	.	.	.	.	.	2f\	-cis	-ce	-tor	-pi-	.
=16-	=16-	=16-	=16-	=16-	=16-	=16-	=16-	=16-	=16-	=16-	=16-	=16-	=16-	=16-	=16-	=16-	=16-	=16-	=16-	=16-	=16-	=16-	=16-
!	!	!	!	!	!	!	!	!	!	!	!	!	!	!	!	!	!	!LO:TX:a:t=P:problem=♭ above	!	!	!	!	!
1.A-X	ad	quod	in-	-ter-	.	2c\	ad	quod	in-	-ter-	.	0c	ad	quod	in-	-ter-	.	1e-X	ad	q(uo)d	in-	-ter-	.
.	.	.	.	.	.	2B-\	.	.	.	.	.	.	.	.	.	.	.	.	.	.	.	.	.
.	.	.	.	.	.	1A-X	.	.	.	.	.	.	.	.	.	.	.	2d\	.	.	.	.	.
*2\right	*	*	*	*	*	*	*	*	*	*	*	*	*	*	*	*	*	*	*	*	*	*	*
2G\	.	.	.	.	.	.	.	.	.	.	.	.	.	.	.	.	.	2e-\	.	.	.	.	.
!LO:TX:t=P:problem=kreska pseudotaktowa	!	!	!	!	!	!LO:TX:t=P:problem=kreska pseudotaktowa	!	!	!	!	!	!LO:TX:t=P:problem=kreska pseudotaktowa	!	!	!	!	!	!LO:TX:t=P:problem=kreska pseudotaktowa	!	!	!	!	!
1F	cae-	de-	-dul-	-na	.	1A-	cae-	de-	-dul-	-na	.	1d	cae-	de-	-dul-	-na	.	1f	Cae-	de-	-dul-	-na	.
=17-	=17-	=17-	=17-	=17-	=17-	=17-	=17-	=17-	=17-	=17-	=17-	=17-	=17-	=17-	=17-	=17-	=17-	=17-	=17-	=17-	=17-	=17-	=17-
1C	.	.	.	.	.	0G	-le-	-li-	-gen-	ſae-	.	1c	.	.	.	.	.	1e-X	.	.	.	.	.
1.G	-le-	-li-	-gen-	ſae-	.	.	.	.	.	.	.	1.c	-le-	-li-	-gen-	ſae-	.	1.d	-le-	-li-	-gen-	Sae-	.
!	!	!	!	!	!	!LO:TX:t=P:problem=kreska pseudotaktowa	!	!	!	!	!	!	!	!	!	!	!	!	!	!	!	!	!
.	.	.	.	.	.	1G	-ſti-	-qui-	-ti-	-cu-	.	.	.	.	.	.	.	.	.	.	.	.	.
!	!	!	!	!	!	!	!	!	!	!	!	!LO:TX:t=P:problem=kreska pseudotaktowa	!	!	!	!	!	!	!	!	!	!	!
!	!	!	!	!	!	!	!	!	!	!	!	!LO:N:acc=#	!	!	!	!	!	!	!	!	!	!	!
!	!	!	!	!	!	!	!	!	!	!	!	!LO:TX:b:t=P:problem=# below	!	!	!	!	!	!LO:TX:t=P:problem=kreska pseudotaktowa	!	!	!	!	!
2G\	-ſti-	-qui-	-ti-	-cu-	.	.	.	.	.	.	.	2Bn\	-ſti-	-qui-	-ti-	-cu-	.	2d\	-ſti-	-qvi-	-ti-	-cu-	.
=18-	=18-	=18-	=18-	=18-	=18-	=18-	=18-	=18-	=18-	=18-	=18-	=18-	=18-	=18-	=18-	=18-	=18-	=18-	=18-	=18-	=18-	=18-	=18-
0.C;	-a	-mus	-ae	-la	.	0.G;	-a	-m(us)	-ae	-la	.	0.c;<	-a	-mus	-ae	-la	.	0.c;;	-a	-m(us)	-ae	-la	.
*	*Xij	*Xij	*Xij	*Xij	*	*	*Xij	*Xij	*Xij	*Xij	*	*	*Xij	*Xij	*Xij	*Xij	*	*	*Xij	*Xij	*Xij	*Xij	*
!LO:LB:g=original	!	!	!	!	!	!LO:LB:g=original	!	!	!	!	!	!LO:LB:g=original	!	!	!	!	!	!LO:LB:g=original	!	!	!	!	!
=||-	=||-	=||-	=||-	=||-	=||-	=||-	=||-	=||-	=||-	=||-	=||-	=||-	=||-	=||-	=||-	=||-	=||-	=||-	=||-	=||-	=||-	=||-	=||-
*-	*-	*-	*-	*-	*-	*-	*-	*-	*-	*-	*-	*-	*-	*-	*-	*-	*-	*-	*-	*-	*-	*-	*-
!!!system-decoration: [(s1,s2,s3,s4)]
!!!RDF**kern: < = below
!!!ENC: Marta Chmielewska
!!!END: 2021-04-06
!!!ENC: Katarzyna Serwa
!!!END: 2021-03-25
!!!YEC: Copyright 2022 Narodowy Instytut Fryderyka Chopina (https://polishscores.org)
!!!YEM: Licence CC BY 4.0 (https://creativecommons.org/licenses/by/4.0)
